X:55
T:Condon's Frolics
M:6/8
L:1/8
Q:200
S:THSP
R:jig
K:EDor
"Em"BEF G2A|BAG FED|BEF G2A|"D"B2A Bed|
"Em"BEF G2A|BAG FEF|"D"DFA dAF|"Em"EFE E2A :||:
"Em"Bee Bcd|ABG FEF|"G"~G3 AGA|"D"B2A Bcd|
"Em"Bee Bcd|ABG FEF|"D"DFA dAF|"Em"EFE E2A:||
